X: 33965
T: Redican's Mother
R: slip jig
M: 9/8
K: Dmajor
FAA FAd AFD|FAA FAd B2A|FAA FAd AFD|EDB, DFA B2A:|
f3 faf edB|Adf fef g2e|ff/f/f faf edB|AFE DFA B3:|

